X:1
T:Sherborne Waltz
O:England
N:Waltz version of Morris jig Orange in Bloom
M:3/4
L:1/8
K:G
D2|:E2G2E2|D2G2A2|B2d2B2|A4BA|
|G2E2E2|D2G2A2|B2G2G2|G4 :|
A2|B3A Bc|d4B2  |A2G2A2|B2c2d2 |
|e2d2B2|A2G2A2|B2A2G2| E4D2  |
|E2G2E2|D2G2A2|B2d2B2|A4BA   |
|G2E2E2|D2G2A2|B2G2G2|G4    ||
